backend/app/assets/video_luts/blue-boost.cube
TITLE "blue-boost"
LUT_3D_SIZE 3
DOMAIN_MIN 0.0 0.0 0.0
DOMAIN_MAX 1.0 1.0 1.0
0.000000 0.000000 0.000000
0.576535 0.000000 0.000000
1.000000 0.000000 0.000000
0.000000 0.528195 0.000000
0.507018 0.507148 0.000000
1.000000 0.486100 0.000000
0.000000 1.000000 0.000000
0.437500 1.000000 0.000000
1.000000 1.000000 0.000000
0.000000 0.040280 0.737793
0.557014 0.007145 0.605612
1.000000 0.000000 0.557900
0.000000 0.603092 0.694962
0.490200 0.505600 0.518200
1.000000 0.478953 0.475508
0.000000 1.000000 0.588112
0.423386 1.000000 0.430788
1.000000 1.000000 0.393117
0.000000 0.073600 1.000000
0.488371 0.042359 1.000000
0.969200 0.017600 1.000000
0.000000 0.633763 1.000000
0.412545 0.538816 1.000000
0.969200 0.489405 1.000000
0.000000 1.000000 1.000000
0.305468 1.000000 1.000000
0.969200 1.000000 1.000000
