backend/app/assets/video_luts/cinematic.cube
TITLE "cinematic"
LUT_3D_SIZE 3
DOMAIN_MIN 0.0 0.0 0.0
DOMAIN_MAX 1.0 1.0 1.0
0.000000 0.040000 0.150000
0.445725 0.033622 0.119173
0.980394 0.027244 0.088346
0.007944 0.515137 0.046296
0.532264 0.513691 0.015469
1.000000 0.512245 0.000000
0.075888 0.997088 0.000000
0.618803 0.990710 0.000000
1.000000 0.984332 0.000000
0.000000 0.037834 0.621235
0.454461 0.031456 0.595425
0.987253 0.025078 0.569616
0.014803 0.514646 0.534410
0.541000 0.513200 0.508600
1.000000 0.511754 0.482790
0.082747 0.994922 0.447584
0.627539 0.988544 0.421775
1.000000 0.982166 0.395965
0.000000 0.035668 1.000000
0.463197 0.029290 1.000000
0.994112 0.022912 1.000000
0.021662 0.514155 1.000000
0.549736 0.512709 0.994531
1.000000 0.511263 0.963704
0.089606 0.992756 0.921654
0.636275 0.986378 0.890827
1.000000 0.980000 0.860000
