backend/app/assets/video_luts/clean-contrast.cube
TITLE "clean-contrast"
LUT_3D_SIZE 3
DOMAIN_MIN 0.0 0.0 0.0
DOMAIN_MAX 1.0 1.0 1.0
0.000000 0.000000 0.000000
0.614330 0.000000 0.000000
1.000000 0.000000 0.000000
0.000000 0.541353 0.000000
0.510483 0.510483 0.000000
1.000000 0.479614 0.000000
0.000000 1.000000 0.000000
0.406636 1.000000 0.000000
1.000000 1.000000 0.000000
0.000000 0.000000 0.634717
0.603847 0.000000 0.603847
1.000000 0.000000 0.572978
0.000000 0.530870 0.530870
0.500000 0.500000 0.500000
1.000000 0.469130 0.469130
0.000000 1.000000 0.427022
0.396153 1.000000 0.396153
1.000000 1.000000 0.365283
0.000000 0.000000 1.000000
0.593364 0.000000 1.000000
1.000000 0.000000 1.000000
0.000000 0.520386 1.000000
0.489517 0.489517 1.000000
1.000000 0.458647 1.000000
0.000000 1.000000 1.000000
0.385670 1.000000 1.000000
1.000000 1.000000 1.000000
