backend/app/assets/video_luts/film-warm.cube
TITLE "film-warm"
LUT_3D_SIZE 3
DOMAIN_MIN 0.0 0.0 0.0
DOMAIN_MAX 1.0 1.0 1.0
0.120000 0.040000 0.000000
0.699370 0.032388 0.000000
1.000000 0.026667 0.000000
0.120000 0.559136 0.000000
0.627278 0.533121 0.000000
1.000000 0.507280 0.000000
0.120000 1.000000 0.000000
0.555186 1.000000 0.000000
1.000000 1.000000 0.000000
0.084990 0.032220 0.433482
0.658230 0.024950 0.444862
1.000000 0.019397 0.449806
0.088852 0.545673 0.376838
0.590000 0.520000 0.385000
1.000000 0.494327 0.393162
0.092714 1.000000 0.320194
0.521770 1.000000 0.325138
1.000000 1.000000 0.336518
0.060000 0.026667 0.800000
0.624814 0.019228 0.827893
1.000000 0.013333 0.850000
0.060000 0.532720 0.800000
0.552722 0.506879 0.824675
1.000000 0.480864 0.850000
0.060000 1.000000 0.800000
0.480630 1.000000 0.821457
1.000000 1.000000 0.850000
