backend/app/assets/video_luts/mono.cube
TITLE "mono"
LUT_3D_SIZE 3
DOMAIN_MIN 0.0 0.0 0.0
DOMAIN_MAX 1.0 1.0 1.0
0.000000 0.000000 0.000000
0.000000 0.000000 0.000000
0.083270 0.083270 0.083270
0.293520 0.293520 0.293520
0.447655 0.447655 0.447655
0.601790 0.601790 0.601790
0.812040 0.812040 0.812040
0.966175 0.966175 0.966175
1.000000 1.000000 1.000000
0.000000 0.000000 0.000000
0.000000 0.000000 0.000000
0.135615 0.135615 0.135615
0.345865 0.345865 0.345865
0.500000 0.500000 0.500000
0.654135 0.654135 0.654135
0.864385 0.864385 0.864385
1.000000 1.000000 1.000000
1.000000 1.000000 1.000000
0.000000 0.000000 0.000000
0.033825 0.033825 0.033825
0.187960 0.187960 0.187960
0.398210 0.398210 0.398210
0.552345 0.552345 0.552345
0.706480 0.706480 0.706480
0.916730 0.916730 0.916730
1.000000 1.000000 1.000000
1.000000 1.000000 1.000000
