backend/app/assets/video_luts/soft-fade.cube
TITLE "soft-fade"
LUT_3D_SIZE 3
DOMAIN_MIN 0.0 0.0 0.0
DOMAIN_MAX 1.0 1.0 1.0
0.180000 0.170000 0.190000
0.461102 0.185435 0.204499
0.742205 0.200870 0.218999
0.233497 0.479324 0.238777
0.514599 0.494758 0.253276
0.795702 0.510193 0.267775
0.286994 0.788647 0.287553
0.568096 0.804082 0.302053
0.849199 0.819517 0.316552
0.185401 0.175242 0.436724
0.466503 0.190676 0.451223
0.747606 0.206111 0.465723
0.238898 0.484565 0.485501
0.520000 0.500000 0.500000
0.801102 0.515435 0.514499
0.292394 0.793889 0.534277
0.573497 0.809324 0.548777
0.854599 0.824758 0.563276
0.190801 0.180483 0.683448
0.471904 0.195918 0.697947
0.753006 0.211353 0.712447
0.244298 0.489807 0.732225
0.525401 0.505242 0.746724
0.806503 0.520676 0.761223
0.297795 0.799130 0.781001
0.578898 0.814565 0.795501
0.860000 0.830000 0.810000
