backend/app/assets/video_luts/teal-orange.cube
TITLE "teal-orange"
LUT_3D_SIZE 3
DOMAIN_MIN 0.0 0.0 0.0
DOMAIN_MAX 1.0 1.0 1.0
0.000000 0.100000 0.180000
0.560131 0.076667 0.116667
0.973333 0.053333 0.053333
0.000000 0.618532 0.116667
0.484654 0.563947 0.053333
1.000000 0.509361 0.000000
0.000000 1.000000 0.053333
0.409178 1.000000 0.000000
1.000000 1.000000 0.000000
0.000000 0.076667 0.750455
0.585477 0.053333 0.656465
1.000000 0.030000 0.562475
0.000000 0.584586 0.583990
0.510000 0.530000 0.490000
1.000000 0.475414 0.396010
0.010000 1.000000 0.417525
0.434523 1.000000 0.323535
1.000000 0.983333 0.229545
0.000000 0.053333 1.000000
0.610822 0.030000 0.990000
1.000000 0.006667 0.926667
0.010000 0.550639 0.990000
0.535346 0.496053 0.926667
1.000000 0.441468 0.863333
0.046667 1.000000 0.926667
0.459869 0.983333 0.863333
1.000000 0.960000 0.800000
